X:1
T:More Holiness Give Me
T:Philip Paul Bliss, 1873
T:More Holiness Give Me
T:Public Domain
T:Public Domain
C:Philip Paul Bliss, 1873
Z:Public Domain
%%score ( 1 2 ) ( 3 4 )
L:1/8
M:12/8
K:D
V:1 treble 
V:2 treble 
V:3 bass 
V:4 bass 
V:1
 [DF]3 [DF][DB][DA] [D^G]3 [DA]3 | [A,D]3 [A,D][A,C]D ([DF]3 [CE]3) | %2
w: 1.~More ho- li- ness give me,|more striv- ings with- in. *|
w: 2.~More gra- ti- tude give me,|more trust in the Lord. *|
w: 3.~More pur- i- ty give me,|more strength to o’er- come, *|
 [DF]3 [DF][DB][DA] [D^G]3 [DA]3 | [DA]3 [D^G][DF][DG] [CA]6 | [CG]3 [CG][DG][EG] [EG]3 [DF]3 | %5
w: pa- tience in suf- fering, more|sor- row for sin. More|faith in my Sav- ior, more|
w: zeal for His glor- y, more|hope in His Word. More|tears for His sor- rows, more|
w: free- dom from earth- * stains,|more long- ings for home.|More fit for the king- dom,|
 [DB]3 [DB][DB][DB] [DA]6 | [Dd]3 [Dd][Dd][Dd] [Dd]3 [DB]3 | [DA]3 [CA][CG][CE] D6 |] %8
w: sense of His care. More|joy in His ser- vice, more|pur- pose in prayer. *|
w: pain at His grief. More|meek- ness in tri- al, more|praise for re- lief. *|
w: more use- ful I’d be,|More bless- èd and ho- ly,|more, Sav- ior, like Thee.|
V:2
 x12 | x5 D x6 | x12 | x12 | x12 | x12 | x12 | x6 D6 |] %8
w: |More|||||||
w: |More|||||||
w: |More|||||||
V:3
 [D,A,]3 [D,A,][D,G,][D,F,] [D,=F,]3 [D,^F,]3 | [D,F,]3 [F,A,][E,G,][D,F,] ([A,,A,]3 [A,,A,]3) | %2
 [D,A,]3 [D,A,][D,G,][D,F,] [D,=F,]3 [D,^F,]3 | [B,,F,]3 E,E,[E,B,] [A,,A,]6 | %4
 [A,,A,]3 [A,,A,][B,,A,][C,A,] [D,A,]3 [D,A,]3 | [G,,G,]3 [G,,G,][A,,G,][B,,G,] [D,F,]6 | %6
 [D,F,]3 [D,F,][E,G,][F,A,] [G,B,]3 [G,,G,]3 | [A,,F,]3 [A,,E,][A,,E,][A,,G,] [D,F,]6 |] %8
V:4
 x12 | x12 | x12 | x3 E,E, x7 | x12 | x12 | x12 | x12 |] %8

